X:8
T:Paddy Faheys no 2
R:Reel
O:Ireland
M:4/4
K:C
c2cB cGEG| FADF EFGA| _BABG c=Bcd| egdc BGAB|\
c2cB cGEG| F2DF EFGA| _B2GA =BGFE|DG,B,D C2EG::\
cBce g^fag| ^fgec GFEG| F2DF EFGA| Bcde fdBd |\
cBce g^fag|^fgec GFEG| F2DF E2CE|DG,B,DC4:|**
